X:1
T:G Major William Billings, 1786
T:William Billings, 1786 86. 86. (C. M.)
T:Shiloh
T:Transcribed from The Suffolk Harmony, 1786.
%%score [ 1 2 3 4 ]
L:1/8
Q:1/4=120
M:2/2
K:G
V:1 treble nm="Tr." snm="Tr."
V:2 treble nm="C." snm="C."
V:3 treble-8 nm="T." snm="T."
V:4 bass nm="B." snm="B."
V:1
"^3. Lay down your crooks and quit your flocks, to Bethlehem repair;  And  let  your wandering  steps be squared By yonder shining star, By       yon  –  der    shi –ning    star.                4.  Seek""^1. Methinks I   see  a  heav'nly host of     an – gels on    the      wing;     Me– thinks  I  hear their cheerful notes, So  mer–ri–ly  they  sing,  So        mer –  ri  –  ly       they    sing." G4 | %1
 B2 B2 B2 d2 | d2 d2 d2 dc | B2 AB cB A2 | B6 B2 | cB A2 GA BA | G2 A2 GA Bc | dc B2 A2 G2 | %8
 G6 d>c | BG B>d c2 A2 | B8 |[M:6/4][Q:1/4=170] z12 | %12
"^2. Let all  your  fears  be banished hence, Glad tidings we proclaim: For  there's  a  Savior born  today And Je –  sus  is     his   name,  And   Je –  sus  is     his       name.""^4. Seek not  in  courts or pa – la  –  ces,     Nor royal curtains draw;   But  search  the stable, see your God Extended  on    the  straw,    Ex – ten– ded  on    the       straw." z12 | %13
 z4 z2 B6 | B4 A2 (G2 c2) A2 | B6- B4 z2 | z12 | z4 z2 z4 d2 | (d2 c2) B2 A4 G2 | G6- G4 G2 | %20
 (B2 d2) B2 (c2 A2) F2 | G6- G6 |] %22
V:2
"^5. Then learn from hence, ye rural swains The meekness of your God, Who left the boundless realms of joy To     ransom  you with blood, To     ran – som    you    with    blood.""^7. Ex  –   ult,  ye ox–en, low for joy,  Ye      tenants   of      the    stall;  Pay  your   o – bei – sance; on your knees U – na – ni – mous – ly  fall,    U  –   na   –  ni  –  mous – ly      fall." D4 | %1
 D2 D2 D2 F2 | G2 G2 G2 G2 | G2 A2 G2 FE | D6 D2 | E2 F2 G2 D2 | E2 F2 G2 D2 | D2 D2 D2 D2 | %8
 E6 G2 | F2 E2 E2 D2 | D8 | %11
[M:6/4] z4 z2"^6. The   mas– ter of       the inn refused A more commodious place; Ungenerous soul of   sa–vage mold, And des–ti–tute  of    grace,   And    des  – ti – tute  of       grace.""^8. The   ro  –  yal guest you  en–ter–tain Is  not  of  com – mon birth; But se–cond in  the  great  I  Am,    The God of heav'n and earth,  The     God   of  heav'n and  earth." D6 | %12
 D4 E2 (D2 C2) B,2 | (D2 G2) F2 G4 G2 | D4 D2 G4 A2 | D6- D4 D2 | (G2 E2) E2 (F2 D2) D2 | %17
 D6 z2 z4 | z4 z2 z4 E2 | E6- E4 G2 | F4 E2 E4 D2 | D6- D6 |] %22
V:3
"^9. Then suddenly a heav'nly host Around the shepherds throng; Ex – ul – ting in      the   threefold God,  And  thus address their song,  And thus  ad – dress  their  song:" D4 | %1
 G2 G2 G2 A2 | B2 B2 B2 Bc | d2 d2 e2 f2 | g6 gf | e2 d2 B2 G2 | B2 d2 c2 B2 | A2 G2 A2 B2 | %8
 c6 B>c | dB GB cA GF | G8 | %11
[M:6/4] z4 z2"^10. To God the Father, Christ the Son, And Holy Ghost adored;  The first and last, the last and first,  E – ter – nal praise afford,     E   –   ter  –  nal  praise  af – ford." G6 | %12
 (G2 B2) c2 (B2 A2) G2 | (G2 B2) d2 d4 d2 | g4 f2 e4 f2 | g6- g4 f2 | (e2 c2) A2 (d2 B2) G2 | %17
 (G2 B2) d2 (d2 c2) B2 | (A2 G2) B2 (d2 c2) B2 | c6- c4 Bc | (d2 B2) G2 (A2 c2) BA | G6- G6 |] %22
V:4
 G,,4 | G,,2 G,,2 G,,2 D,2 | G,2 G,2 G,2 G,2 | G,2 F,2 E,2 D,2 | G,6 G,2 | A,2 D,2 G,2 G,>F, | %6
 E,2 D,2 E,F, G,2 | D,2 G,,2 D,2 G,2 | C,6 G,2 | D,2 E,2 C,2 D,2 | G,,8 |[M:6/4] z12 | z12 | %13
 z4 z2 G,6 | G,4 D,2 (E,2 C,2) D,2 | G,6- G,4 z2 | z12 | G,4 B,2 (B,2 A,2) G,2 | D,4 D,2 D,4 E,2 | %19
 C,6- C,4 G,2 | D,4 E,2 C,4 D,2 | G,,6- G,,6 |] %22

